X:46
T: Wol auf, ihr frommen Deutschen!
N: A0400
O: Europa, Mitteleuropa, Deutschland
N: Einzeldruck 1546.
R: Romanze, Ballade, Lied, religioeses Lied
M: 4/2
L: 1/4
K: A
A2 | =c2A2c2d2 | e4e4z2
e2 | e2d3=cc4B2 | A4z2
A2 | =c2A2c2d2 | e4e4z2
e2 | e2d3=cc4B2 | A4z2
A2 | =c4c2B4=G2 | A4=G2
E4=C2 | =G2A2B2G2A2B2 | =c4z2
e2 | e2e2d2=c2 | B4A2
=c3BA=G | A2=G2F4 | E8

@@@ Tune index: 359
